static/assets/img/icons/theme/files/file-cloud.svg

<svg height="24" viewBox="0 0 24 24" width="24" xmlns="http://www.w3.org/2000/svg"><g fill="none" fill-rule="evenodd"><path d="m0 0h24v24h-24z" opacity="0"/><g fill="#000"><path d="m5.85714286 2h7.87926854c.3546848 0 .6978952.12568431.9686994.35473959l4.7635886 4.02920201c.3369538.28500673.5313006.70393663.5313006 1.14526041v12.55413129c0 1.7905418-.0204479 1.9166667-1.8571429 1.9166667h-12.28571424c-1.83669499 0-1.85714286-.1261249-1.85714286-1.9166667v-16.16666663c0-1.79054178.02044787-1.91666667 1.85714286-1.91666667z" fill-rule="nonzero" opacity=".3"/><path d="m8.63657261 15.4632487c-.98328307-.619635-1.63657261-1.7151499-1.63657261-2.9632487 0-1.9329966 1.56700338-3.5 3.5-3.5 1.763236 0 3.2219407 1.3038529 3.4645556 3h1.0354444c1.1045695 0 2 .8954305 2 2s-.8954305 2-2 2h-5c-.52689348 0-1.00619927-.2037471-1.36342739-.5367513z"/></g></g></svg>

<svg width="24px" height="24px" viewBox="0 0 24 24" version="1.1" xmlns="http://www.w3.org/2000/svg" xmlns:xlink="http://www.w3.org/1999/xlink">
    <title>Icon For File-cloud</title>
    <g stroke="none" stroke-width="1" fill="none" fill-rule="evenodd">
        <polygon points="0 0 24 0 24 24 0 24" opacity="0"></polygon>
        <path d="M5.85714286,2 L13.7364114,2 C14.0910962,2 14.4343066,2.12568431 14.7051108,2.35473959 L19.4686994,6.3839416 C19.8056532,6.66894833 20,7.08787823 20,7.52920201 L20,20.0833333 C20,21.8738751 19.9795521,22 18.1428571,22 L5.85714286,22 C4.02044787,22 4,21.8738751 4,20.0833333 L4,3.91666667 C4,2.12612489 4.02044787,2 5.85714286,2 Z" fill="#000000" fill-rule="nonzero" opacity="0.3"></path>
        <path d="M8.63657261,15.4632487 C7.65328954,14.8436137 7,13.7480988 7,12.5 C7,10.5670034 8.56700338,9 10.5,9 C12.263236,9 13.7219407,10.3038529 13.9645556,12 L15,12 C16.1045695,12 17,12.8954305 17,14 C17,15.1045695 16.1045695,16 15,16 L10,16 C9.47310652,16 8.99380073,15.7962529 8.63657261,15.4632487 Z" fill="#000000"></path>
    </g>
</svg>
